X: 4870
T: Braes Of Elchies, The
R: jig
M: 6/8
K: Cmajor
|:A|GEG c3|e2 d f3|GEG c2 d|ege dBA|
GEG c3|e2 d c2 G|AFA GcE|D2 E F2:|
|:e|geg geg|afa afa|geg gec|e^de =d2 G|
[1 geg g2 e|afa a2 f|gec d2 G|A2 B c2:|
[2 AFA AF/G/A|GEG G2 E|AfA Gce|d2 G C2||

